X: 27800
T: Morrison's
R: jig
M: 6/8
K: Edorian
|:BEE BEB|EBE AFA|BEE BBc|dcB AFA|
BEE BEB|EBE AFD|G3 FGA|BdB AFA:|
Bee fee|aee fee|Bee fee|aee fee|
Bee fee|aee fef|{f}g3 f/g/fe|def f/g/fe|
Bee fee|aee fee|Bee fee|aee fef|
g3 f/g/fe|def g2d|edB dBA|BAB AFD||

